X:219
%%topspace -50
T:The Wizard's Walk
C:Jay Ungar
M:4/4
L:1/8
K:Em
"Em"e2dc BAGF | GAFG E2B2 | e3f gfef | "B7"gafg "Em"e4 | 
"Am"a2gf edcB | cdBc A2E2 | A3B cBAB | "E7"cdBc "Am"A4 ||
"B7"BB[Bf]B B[Bf]BB | "C"[cg]cc[cg] cc[cg]c | "B7"BB[Bf]B B[Bf]BB | "C"[cg]cc[cg] cc[cg]c | 
"B7"[Bf]BBB "C"[cg]ccc | "B7"[Bf]BBB "C"[cg]ccc | "B7"BB^cc ^ddee | ffgg aabb ||
|: "Em"egbg egbg | "B7"^dfbf dfbf | "D"=dfab afdB | "A"^ceae aecA | 
"C"=cege cege | "Em"Bege Bege | "E"_Bege Bege | "Bsus4"=Bege "B7"fe^df :|

%%newpage
%%scale 0.77

